Catalina-light/actions/16/edit-clear-all-symbolic.svg

<?xml version="1.0" encoding="UTF-8" standalone="no"?>
<svg
   xmlns:dc="http://purl.org/dc/elements/1.1/"
   xmlns:cc="http://creativecommons.org/ns#"
   xmlns:rdf="http://www.w3.org/1999/02/22-rdf-syntax-ns#"
   xmlns:svg="http://www.w3.org/2000/svg"
   xmlns="http://www.w3.org/2000/svg"
   xmlns:sodipodi="http://sodipodi.sourceforge.net/DTD/sodipodi-0.dtd"
   xmlns:inkscape="http://www.inkscape.org/namespaces/inkscape"
   viewBox="0 0 16 16"
   id="svg2"
   version="1.1"
   inkscape:version="0.91 r13725"
   sodipodi:docname="edit-clear-all-symbolic.svg">
  <metadata
     id="metadata10">
    <rdf:RDF>
      <cc:Work
         rdf:about="">
        <dc:format>image/svg+xml</dc:format>
        <dc:type
           rdf:resource="http://purl.org/dc/dcmitype/StillImage" />
      </cc:Work>
    </rdf:RDF>
  </metadata>
  <sodipodi:namedview
     pagecolor="#ffffff"
     bordercolor="#666666"
     borderopacity="1"
     objecttolerance="10"
     gridtolerance="10"
     guidetolerance="10"
     inkscape:pageopacity="0"
     inkscape:pageshadow="2"
     inkscape:window-width="640"
     inkscape:window-height="480"
     id="namedview8"
     showgrid="false"
     inkscape:zoom="41.1875"
     inkscape:cx="3.6783005"
     inkscape:cy="8"
     inkscape:current-layer="svg2" />
  <defs
     id="defs3051">
    <style
       type="text/css"
       id="current-color-scheme">
      .ColorScheme-Text {
        color:#bebebe;
      }
      </style>
  </defs>
  <path
     style="color:#bebebe;fill:currentColor;fill-opacity:1;stroke:none"
     class="ColorScheme-Text"
     d="M 10.000388,4.1 13.528904,7.540628 14,8 13.528904,8.459378 10.000388,11.9 3.832814,11.9 2.9,11.9 l -0.3,0 -0.3,0 C 2.1338,11.9 2,11.7662 2,11.6 L 2,4.4 C 2,4.2338 2.1338,4.1 2.3,4.1 l 0.6,0 0.932814,0 6.167574,0 z M 8.339846,6.05 7.000388,7.3566384 5.659766,6.05 5,6.6933616 6.339452,8 5,9.306638 5.659766,9.95 7.000388,8.643362 8.339846,9.95 8.999612,9.306638 7.660154,8 8.999612,6.6933616 8.339846,6.05 Z"
     id="path6"
     inkscape:connector-curvature="0" />
</svg>

<svg version="1.1" viewBox="0 0 16 16" xmlns="http://www.w3.org/2000/svg">
<defs>
<style id="current-color-scheme" type="text/css">.ColorScheme-Text {
        color:#bebebe;
      }</style>
</defs>
<path class="ColorScheme-Text" d="m10 4.1 3.5285 3.4406 0.4711 0.45937-0.4711 0.45938-3.5285 3.4406h-7.7004c-0.1662 0-0.3-0.1338-0.3-0.3v-7.2c0-0.1662 0.1338-0.3 0.3-0.3h7.7004zm-1.6605 1.95-1.3395 1.3066-1.3406-1.3066-0.65977 0.64336 1.3395 1.3066-1.3395 1.3066 0.65977 0.64336 1.3406-1.3066 1.3395 1.3066 0.65977-0.64336-1.3395-1.3066 1.3395-1.3066-0.65977-0.64336z" color="#bebebe" fill="currentColor"/>
</svg>
